X:1
T:Mr P.C.
C:John Coltrane
Q:1/4=60
M:C
K:F
L:1/4
V:1
%%MIDI transpose -2
%%MIDI program 61
z4 |: D/D/E/E/ F/F/G/G/ | A3/2 G/ F/D/ z/ C/ | D2 C3/2 D/- | D z z2 |
G/G/A/A/ B/B/c/c/ | d3/2 c/ A/G/ z/ E/ | D2 C3/2 D/- | D z F/D/F/_A/ |
z/ G3/2- G3/2 _A/ | z/ G F/ G .F | D2 C3/2 D/- | D z z2 :|
V:2
%%MIDI program 116
f' f' f' f'
